src/assets/icons/stroke/textColor.svg

<svg width="1em" height="1em" viewBox="0 0 24 24" fill="none" xmlns="http://www.w3.org/2000/svg">
<path d="M15.1996 13.494C15.1996 13.494 11.5996 17.394 11.5996 19.794C11.593 20.2733 11.681 20.7493 11.8583 21.1946C12.0357 21.64 12.299 22.046 12.6333 22.3896C13.3084 23.0835 14.2316 23.4807 15.1996 23.494C16.1677 23.5073 17.1013 23.1354 17.7952 22.4603C18.1388 22.126 18.4131 21.7273 18.6026 21.287C18.7921 20.8467 18.893 20.3733 18.8996 19.894V19.794C18.8996 17.394 15.1996 13.494 15.1996 13.494ZM13.7296 12.137L14.3986 11.413L12.0996 5H10.0996L5.09961 19H7.09961L8.52961 15H11.4726C12.1513 13.9909 12.9044 13.0339 13.7256 12.137H13.7296ZM11.0996 7.8L12.9596 13H9.24361L11.0996 7.8Z" fill="currentColor"/>
</svg>

<svg xmlns="http://www.w3.org/2000/svg" width="1em" height="1em" fill="none"><path fill="currentColor" d="M15.2 13.5s-3.6 3.9-3.6 6.3a3.7 3.7 0 0 0 7.3 0c0-2.4-3.7-6.3-3.7-6.3ZM13.7 12l.7-.7L12.1 5h-2l-5 14h2l1.4-4h3l2.2-2.9Zm-2.6-4.3L13 13H9.2l1.9-5.2Z"/></svg>
